static/assets/template/assets/img/icons/essential/detailed/Whistle.svg

<svg height="73" viewBox="0 0 148 73" width="148" xmlns="http://www.w3.org/2000/svg"><g fill="none" fill-rule="evenodd" transform="translate(2 2)"><path d="m40.4.3c-18.9 0-34.2 15.3-34.2 34.2s15.3 34.2 34.2 34.2c13 0 24.4-7.3 30.1-18v.1c4.4-6.5 11.1-11.2 18.9-12.9l45.1-9.7c5.6-1.2 9.6-6.2 9.6-11.9v-15.9h-103.7z" fill-rule="nonzero"/><path d="m44.1 2.9c-18.2 0-33 14.7-33 32.9s14.8 32.9 33 32.9c12.6 0 21.2-7.4 26.7-17.7l1.1-2c4.2-6.3 13.1-10 20.7-11.6l42.9-9.7c5.4-1.2 8.8-3.9 8.8-9.4v-15.3h-100.2z" fill-rule="nonzero"/><path d="m24.6 4.2c4.7-2.5 10.1-3.9 15.8-3.9 18.9 0 34.2 15.3 34.2 34.2s-15.3 34.2-34.2 34.2-34.2-15.3-34.2-34.2c0-5.8 1.4-11.2 4-16" stroke-linecap="round" stroke-linejoin="round" stroke-width="3"/><path d="m15.2 11.4 2.4-2.4" stroke-linecap="round" stroke-linejoin="round" stroke-width="3"/><circle cx="41.7" cy="35.8" fill-rule="nonzero" r="13.7"/><g stroke-linecap="round" stroke-linejoin="round" stroke-width="3"><path d="m48.9 46.9c-2.4 1.7-5.3 2.6-8.5 2.6-8.3 0-15-6.7-15-15 0-1.2.1-2.4.4-3.6"/><path d="m55.2 37c-.1.6-.2 1.1-.4 1.7"/><path d="m29.4 24.4c2.7-3 6.7-4.9 11-4.9 6.5 0 12.1 4.2 14.1 10"/><path d="m40.4.3h103.8v15.9c0 5.8-4 10.7-9.6 11.9l-45.1 9.7c-7.8 1.7-14.6 6.4-18.9 12.9"/><path d="m6.7 40.5c-.2 0-.4 0-.6 0-3.3 0-6-2.7-6-6s2.7-6 6-6h.6"/><path d="m81.9 5.2c.4.6.8 1.1 1.2 1.6 1.1 1.4 2.7 2.2 4.5 2.2h7.2c1.2 0 2.1-1 2.1-2.1v-6.5"/></g></g></svg>

<?xml version="1.0" encoding="UTF-8"?>
<svg width="148px" height="73px" viewBox="0 0 148 73" version="1.1" xmlns="http://www.w3.org/2000/svg" xmlns:xlink="http://www.w3.org/1999/xlink">
    <!-- Generator: Sketch 51.2 (57519) - http://www.bohemiancoding.com/sketch -->
    <title>Whistle</title>
    <desc>Created with Sketch.</desc>
    <defs></defs>
    <g id="Page-1" stroke="none" stroke-width="1" fill="none" fill-rule="evenodd">
        <g id="Whistle" transform="translate(2.000000, 2.000000)">
            <path d="M40.4,0.3 C21.5,0.3 6.2,15.6 6.2,34.5 C6.2,53.4 21.5,68.7 40.4,68.7 C53.4,68.7 64.8,61.4 70.5,50.7 L70.5,50.8 C74.9,44.3 81.6,39.6 89.4,37.9 L134.5,28.2 C140.1,27 144.1,22 144.1,16.3 L144.1,0.4 L40.4,0.4 L40.4,0.3 Z" id="Shape" class="fill-neutral" fill-rule="nonzero"></path>
            <path d="M44.1,2.9 C25.9,2.9 11.1,17.6 11.1,35.8 C11.1,54 25.9,68.7 44.1,68.7 C56.7,68.7 65.3,61.3 70.8,51 L71.9,49 C76.1,42.7 85,39 92.6,37.4 L135.5,27.7 C140.9,26.5 144.3,23.8 144.3,18.3 L144.3,3 L44.1,3 L44.1,2.9 Z" id="Shape" class="fill-primary-100" fill-rule="nonzero"></path>
            <path d="M24.6,4.2 C29.3,1.7 34.7,0.3 40.4,0.3 C59.3,0.3 74.6,15.6 74.6,34.5 C74.6,53.4 59.3,68.7 40.4,68.7 C21.5,68.7 6.2,53.4 6.2,34.5 C6.2,28.7 7.6,23.3 10.2,18.5" id="Shape" class="stroke-primary" stroke-width="3" stroke-linecap="round" stroke-linejoin="round"></path>
            <path d="M15.2,11.4 C16,10.6 16.8,9.8 17.6,9" id="Shape" class="stroke-primary" stroke-width="3" stroke-linecap="round" stroke-linejoin="round"></path>
            <circle id="Oval" class="fill-primary-400" fill-rule="nonzero" cx="41.7" cy="35.8" r="13.7"></circle>
            <path d="M48.9,46.9 C46.5,48.6 43.6,49.5 40.4,49.5 C32.1,49.5 25.4,42.8 25.4,34.5 C25.4,33.3 25.5,32.1 25.8,30.9" id="Shape" class="stroke-primary" stroke-width="3" stroke-linecap="round" stroke-linejoin="round"></path>
            <path d="M55.2,37 C55.1,37.6 55,38.1 54.8,38.7" id="Shape" class="stroke-primary" stroke-width="3" stroke-linecap="round" stroke-linejoin="round"></path>
            <path d="M29.4,24.4 C32.1,21.4 36.1,19.5 40.4,19.5 C46.9,19.5 52.5,23.7 54.5,29.5" id="Shape" class="stroke-primary" stroke-width="3" stroke-linecap="round" stroke-linejoin="round"></path>
            <path d="M40.4,0.3 L144.2,0.3 L144.2,16.2 C144.2,22 140.2,26.9 134.6,28.1 L89.5,37.8 C81.7,39.5 74.9,44.2 70.6,50.7" id="Shape" class="stroke-primary" stroke-width="3" stroke-linecap="round" stroke-linejoin="round"></path>
            <path d="M6.7,40.5 C6.5,40.5 6.3,40.5 6.1,40.5 C2.8,40.5 0.1,37.8 0.1,34.5 C0.1,31.2 2.8,28.5 6.1,28.5 L6.7,28.5" id="Shape" class="stroke-primary" stroke-width="3" stroke-linecap="round" stroke-linejoin="round"></path>
            <path d="M81.9,5.2 C82.3,5.8 82.7,6.3 83.1,6.8 C84.2,8.2 85.8,9 87.6,9 L94.8,9 C96,9 96.9,8 96.9,6.9 L96.9,0.4" id="Shape" class="stroke-primary" stroke-width="3" stroke-linecap="round" stroke-linejoin="round"></path>
        </g>
    </g>
</svg>
